X:1
T:Name
Z: id:dc-hornpipe-1
M:C|
L:1/8
K:D Major
FE|D2FA dAFD|CDEF G2FE|D2FA dcdf|(3efg (3dcB (3ABA (3GFE|!
D2FA dAFD|CDEF G2FG|AdcB AGFE|D2CE D2:|!
de|fefg fedc|BABc B2cd|edef edcB|(3ABA ^GB A2 (3ABc|!
dcde fdAF|GFGA BdcB|AdcB AGFE|D2CE D2:|!